public/Choosier.svg

<?xml version="1.0" encoding="UTF-8"?>
<svg viewBox="0 0 279 49" xmlns="http://www.w3.org/2000/svg" fill="#222">
<path d="m69.061 47.55h10.4v-21.84c0-1.4733-0.13-2.9683-0.39-4.485s-0.7584-2.9033-1.495-4.16c-0.7367-1.3-1.82-2.34-3.25-3.12-1.3867-0.78-3.25-1.17-5.59-1.17-2.47 0-4.745 0.5633-6.825 1.69-2.0367 1.0833-3.6834 2.6433-4.94 4.68v-19.045h-10.4v47.45h10.4v-19.565c0.4333-1.2133 1.0616-2.275 1.885-3.185 0.8233-0.91 1.7116-1.6033 2.665-2.08 0.9966-0.52 1.885-0.78 2.665-0.78 1.4733 0 2.6433 0.52 3.51 1.56 0.91 1.04 1.365 2.665 1.365 4.875v19.175z"/>
<path d="m1.56 15.83c-1.04 2.6867-1.56 5.4383-1.56 8.255 0 2.9467 0.54167 5.85 1.625 8.71 1.1267 2.8167 2.6867 5.3733 4.68 7.67 2.0367 2.2533 4.4417 4.0733 7.215 5.46 2.8167 1.3433 5.8933 2.015 9.23 2.015 2.5567 0 5.135-0.4117 7.735-1.235 2.6433-0.8667 5.005-2.1017 7.085-3.705s3.575-3.5317 4.485-5.785l-8.71-5.135c-0.6067 1.5167-1.495 2.7517-2.665 3.705-1.1267 0.91-2.3617 1.5817-3.705 2.015s-2.665 0.65-3.965 0.65c-1.82 0-3.4883-0.3683-5.005-1.105-1.5167-0.78-2.8167-1.82-3.9-3.12-1.04-1.3-1.8417-2.795-2.405-4.485s-0.845-3.445-0.845-5.265c0-1.6467 0.2383-3.2933 0.715-4.94s1.2133-3.1417 2.21-4.485 2.2533-2.405 3.77-3.185c1.5167-0.8233 3.2933-1.235 5.33-1.235 1.2567 0 2.5567 0.195 3.9 0.585 1.3867 0.3467 2.6433 0.975 3.77 1.885 1.17 0.91 2.1017 2.1883 2.795 3.835l8.19-5.72c-1.56-2.99-3.9433-5.4167-7.15-7.28-3.1633-1.8633-6.9117-2.795-11.245-2.795-3.64 0-6.89 0.67167-9.75 2.015-2.86 1.3-5.2867 3.055-7.28 5.265s-3.51 4.68-4.55 7.41z"/>
<path d="m102.62 48.2c-2.9036 0-5.5035-0.4767-7.8002-1.43-2.2533-0.9533-4.16-2.2533-5.72-3.9s-2.7517-3.5317-3.575-5.655c-0.5383-1.4653-0.8908-2.9821-1.0576-4.5506 2.8636 3.445 8.8295 7.8856 18.015 7.8856 9.007 0 15.149-4.2695 18.26-7.6834-0.184 1.4967-0.548 2.9462-1.092 4.3484-0.824 2.1233-2.015 4.0083-3.575 5.655s-3.467 2.9467-5.72 3.9c-2.254 0.9533-4.832 1.43-7.735 1.43z"/>
<path d="m120.74 28.103c-3.007-3.3911-9.022-7.5526-18.256-7.5526-9.4161 0-15.25 4.3273-18.011 7.7524 0.1685-1.575 0.5197-3.0892 1.0535-4.5424 0.8233-2.1233 2.015-4.0083 3.575-5.655s3.4667-2.9467 5.72-3.9c2.2967-0.9533 4.8966-1.43 7.8002-1.43 2.903 0 5.481 0.4767 7.735 1.43 2.253 0.9533 4.16 2.2533 5.72 3.9s2.751 3.5317 3.575 5.655c0.539 1.3917 0.902 2.8392 1.088 4.3426z"/>
<path d="m136.49 46.77c2.296 0.9533 4.896 1.43 7.8 1.43 2.903 0 5.481-0.4767 7.735-1.43 2.253-0.9533 4.16-2.2533 5.72-3.9s2.751-3.5317 3.575-5.655c0.57-1.4713 0.943-2.9947 1.118-4.57-3.044 3.4477-9.256 7.905-18.459 7.905-8.977 0-14.879-4.2418-17.815-7.65 0.176 1.4848 0.519 2.9232 1.031 4.315 0.823 2.1233 2.015 4.0083 3.575 5.655s3.466 2.9467 5.72 3.9z"/>
<path d="m143.98 20.55c9.444 0 15.519 4.3522 18.456 7.7819-0.177-1.5856-0.548-3.1096-1.115-4.5719-0.824-2.1233-2.015-4.0083-3.575-5.655s-3.467-2.9467-5.72-3.9c-2.254-0.9533-4.832-1.43-7.735-1.43-2.904 0-5.504 0.4767-7.8 1.43-2.254 0.9533-4.16 2.2533-5.72 3.9s-2.752 3.5317-3.575 5.655c-0.507 1.3781-0.849 2.811-1.026 4.2986 2.837-3.383 8.616-7.5086 17.81-7.5086z"/>
<path d="m180.78 48.2c-2.903 0-5.741-0.4767-8.515-1.43-2.773-0.9533-5.113-2.3617-7.02-4.225l3.575-6.565c2.08 1.5167 4.095 2.665 6.045 3.445 1.994 0.78 3.857 1.17 5.59 1.17 1.344 0 2.384-0.2167 3.12-0.65 0.737-0.4333 1.105-1.105 1.105-2.015 0-0.65-0.216-1.1483-0.65-1.495-0.433-0.39-1.105-0.7367-2.015-1.04-0.866-0.3033-1.95-0.6283-3.25-0.975-2.6-0.8667-4.766-1.7117-6.5-2.535-1.733-0.8233-3.033-1.82-3.9-2.99-0.866-1.2133-1.3-2.7733-1.3-4.68 0-2.2967 0.564-4.29 1.69-5.98 1.17-1.7333 2.817-3.0767 4.94-4.03 2.124-0.9533 4.659-1.43 7.605-1.43 2.34 0 4.615 0.3683 6.825 1.105 2.254 0.7367 4.355 1.9717 6.305 3.705l-4.03 6.5c-1.95-1.3433-3.683-2.3183-5.2-2.925-1.516-0.6067-2.99-0.91-4.42-0.91-0.736 0-1.408 0.0867-2.015 0.26-0.606 0.1733-1.105 0.4767-1.495 0.91-0.346 0.39-0.52 0.91-0.52 1.56s0.174 1.17 0.52 1.56c0.39 0.39 0.975 0.7367 1.755 1.04 0.824 0.26 1.842 0.585 3.055 0.975 2.817 0.8233 5.157 1.6683 7.02 2.535 1.864 0.8233 3.25 1.8633 4.16 3.12 0.954 1.2133 1.43 2.8383 1.43 4.875 0 3.4667-1.256 6.1967-3.77 8.19-2.47 1.95-5.85 2.925-10.14 2.925z"/>
<path d="m200.03 13.425v34.125h10.4v-34.125h-10.4z"/>
<path d="m200.03 0.10001v9.425h10.4v-9.425h-10.4z"/>
<path d="m233.86 48.2c-2.904 0-5.482-0.455-7.735-1.365-2.254-0.9533-4.182-2.2317-5.785-3.835-1.56-1.6033-2.752-3.445-3.575-5.525-0.824-2.1233-1.235-4.3333-1.235-6.63 0-3.2933 0.715-6.2833 2.145-8.97 1.473-2.73 3.575-4.9183 6.305-6.565 2.73-1.69 6.023-2.535 9.88-2.535 3.856 0 7.128 0.8233 9.815 2.47 2.73 1.6467 4.81 3.8133 6.24 6.5 1.43 2.6433 2.145 5.525 2.145 8.645 0 0.6067-0.044 1.2133-0.13 1.82-0.044 0.5633-0.087 1.0617-0.13 1.495h-25.22c0.13 1.5167 0.541 2.795 1.235 3.835 0.736 1.04 1.668 1.8417 2.795 2.405 1.126 0.52 2.318 0.78 3.575 0.78 1.56 0 3.011-0.3683 4.355-1.105 1.386-0.7367 2.34-1.7333 2.86-2.99l8.84 2.47c-0.867 1.7767-2.102 3.3583-3.705 4.745-1.56 1.3433-3.424 2.405-5.59 3.185-2.124 0.78-4.485 1.17-7.085 1.17zm-7.54-20.865h14.82c-0.174-1.43-0.585-2.665-1.235-3.705-0.65-1.0833-1.517-1.9067-2.6-2.47-1.084-0.6067-2.275-0.91-3.575-0.91-1.344 0-2.557 0.3033-3.64 0.91-1.04 0.5633-1.885 1.3867-2.535 2.47-0.65 1.04-1.062 2.275-1.235 3.705z" clip-rule="evenodd" fill-rule="evenodd"/>
<path d="m271.59 23.565c2.037-0.8233 4.312-1.235 6.825-1.235v-9.36c-0.173-0.0433-0.39-0.065-0.65-0.065h-1.04c-2.037 0.0433-3.987 0.715-5.85 2.015s-3.38 3.0983-4.55 5.395v-6.89h-9.555v34.125h10.4v-20.475c0.91-1.56 2.383-2.73 4.42-3.51z"/>
<path d="m95.991 35.2c-0.65-1.3433-0.975-2.9033-0.975-4.68 0-1.7766 0.325-3.3366 0.975-4.68 0.6933-1.3433 1.6033-2.3833 2.73-3.12 1.1267-0.7366 2.4262-1.105 3.9002-1.105 1.43 0 2.708 0.3684 3.835 1.105 1.17 0.7367 2.08 1.7767 2.73 3.12 0.65 1.3434 0.975 2.9034 0.975 4.68 0 1.7334-0.325 3.2717-0.975 4.615-0.65 1.3434-1.56 2.405-2.73 3.185-1.127 0.7367-2.405 1.105-3.835 1.105-1.474 0-2.7735-0.3683-3.9002-1.105-1.1267-0.7366-2.0367-1.7766-2.73-3.12z"/>
<path d="m136.69 30.52c0 1.7767 0.325 3.3367 0.975 4.68 0.693 1.3434 1.603 2.3834 2.73 3.12 1.126 0.7367 2.426 1.105 3.9 1.105 1.43 0 2.708-0.3683 3.835-1.105 1.17-0.78 2.08-1.8416 2.73-3.185 0.65-1.3433 0.975-2.8816 0.975-4.615 0-1.7766-0.325-3.3366-0.975-4.68-0.65-1.3433-1.56-2.3833-2.73-3.12-1.127-0.7366-2.405-1.105-3.835-1.105-1.474 0-2.774 0.3684-3.9 1.105-1.127 0.7367-2.037 1.7767-2.73 3.12-0.65 1.3434-0.975 2.9034-0.975 4.68z"/>
</svg>

<svg width="279" height="49" viewBox="0 0 279 49" fill="none" xmlns="http://www.w3.org/2000/svg">
<path d="M69.061 47.55H79.461V25.71C79.461 24.2367 79.331 22.7417 79.071 21.225C78.811 19.7083 78.3126 18.3217 77.576 17.065C76.8393 15.765 75.756 14.725 74.326 13.945C72.9393 13.165 71.076 12.775 68.736 12.775C66.266 12.775 63.991 13.3383 61.911 14.465C59.8743 15.5483 58.2276 17.1083 56.971 19.145V0.100006H46.571V47.55H56.971V27.985C57.4043 26.7717 58.0326 25.71 58.856 24.8C59.6793 23.89 60.5676 23.1967 61.521 22.72C62.5176 22.2 63.406 21.94 64.186 21.94C65.6593 21.94 66.8293 22.46 67.696 23.5C68.606 24.54 69.061 26.165 69.061 28.375V47.55Z" fill="#222222"/>
<path d="M1.56 15.83C0.52 18.5167 0 21.2683 0 24.085C0 27.0317 0.541667 29.935 1.625 32.795C2.75167 35.6117 4.31167 38.1683 6.305 40.465C8.34167 42.7183 10.7467 44.5383 13.52 45.925C16.3367 47.2683 19.4133 47.94 22.75 47.94C25.3067 47.94 27.885 47.5283 30.485 46.705C33.1283 45.8383 35.49 44.6033 37.57 43C39.65 41.3967 41.145 39.4683 42.055 37.215L33.345 32.08C32.7383 33.5967 31.85 34.8317 30.68 35.785C29.5533 36.695 28.3183 37.3667 26.975 37.8C25.6317 38.2333 24.31 38.45 23.01 38.45C21.19 38.45 19.5217 38.0817 18.005 37.345C16.4883 36.565 15.1883 35.525 14.105 34.225C13.065 32.925 12.2633 31.43 11.7 29.74C11.1367 28.05 10.855 26.295 10.855 24.475C10.855 22.8283 11.0933 21.1817 11.57 19.535C12.0467 17.8883 12.7833 16.3933 13.78 15.05C14.7767 13.7067 16.0333 12.645 17.55 11.865C19.0667 11.0417 20.8433 10.63 22.88 10.63C24.1367 10.63 25.4367 10.825 26.78 11.215C28.1667 11.5617 29.4233 12.19 30.55 13.1C31.72 14.01 32.6517 15.2883 33.345 16.935L41.535 11.215C39.975 8.22501 37.5917 5.79834 34.385 3.93501C31.2217 2.07167 27.4733 1.14 23.14 1.14C19.5 1.14 16.25 1.81167 13.39 3.155C10.53 4.455 8.10333 6.21 6.11 8.42C4.11667 10.63 2.6 13.1 1.56 15.83Z" fill="#222222"/>
<path d="M102.621 48.2C99.7174 48.2 97.1175 47.7233 94.8208 46.77C92.5675 45.8167 90.6608 44.5167 89.1008 42.87C87.5408 41.2233 86.3491 39.3383 85.5258 37.215C84.9875 35.7497 84.635 34.2329 84.4682 32.6644C87.3318 36.1094 93.2977 40.55 102.483 40.55C111.49 40.55 117.632 36.2805 120.743 32.8666C120.559 34.3633 120.195 35.8128 119.651 37.215C118.827 39.3383 117.636 41.2233 116.076 42.87C114.516 44.5167 112.609 45.8167 110.356 46.77C108.102 47.7233 105.524 48.2 102.621 48.2Z" fill="#222222"/>
<path d="M120.739 28.1026C117.732 24.7115 111.717 20.55 102.483 20.55C93.0669 20.55 87.2331 24.8773 84.4723 28.3024C84.6408 26.7274 84.992 25.2132 85.5258 23.76C86.3491 21.6367 87.5408 19.7517 89.1008 18.105C90.6608 16.4583 92.5675 15.1583 94.8208 14.205C97.1175 13.2517 99.7174 12.775 102.621 12.775C105.524 12.775 108.102 13.2517 110.356 14.205C112.609 15.1583 114.516 16.4583 116.076 18.105C117.636 19.7517 118.827 21.6367 119.651 23.76C120.19 25.1517 120.553 26.5992 120.739 28.1026Z" fill="#222222"/>
<path d="M136.494 46.77C138.79 47.7233 141.39 48.2 144.294 48.2C147.197 48.2 149.775 47.7233 152.029 46.77C154.282 45.8167 156.189 44.5167 157.749 42.87C159.309 41.2233 160.5 39.3383 161.324 37.215C161.894 35.7437 162.267 34.2203 162.442 32.645C159.398 36.0927 153.186 40.55 143.983 40.55C135.006 40.55 129.104 36.3082 126.168 32.9C126.344 34.3848 126.687 35.8232 127.199 37.215C128.022 39.3383 129.214 41.2233 130.774 42.87C132.334 44.5167 134.24 45.8167 136.494 46.77Z" fill="#222222"/>
<path d="M143.983 20.55C153.427 20.55 159.502 24.9022 162.439 28.3319C162.262 26.7463 161.891 25.2223 161.324 23.76C160.5 21.6367 159.309 19.7517 157.749 18.105C156.189 16.4583 154.282 15.1583 152.029 14.205C149.775 13.2517 147.197 12.775 144.294 12.775C141.39 12.775 138.79 13.2517 136.494 14.205C134.24 15.1583 132.334 16.4583 130.774 18.105C129.214 19.7517 128.022 21.6367 127.199 23.76C126.692 25.1381 126.35 26.571 126.173 28.0586C129.01 24.6756 134.789 20.55 143.983 20.55Z" fill="#222222"/>
<path d="M180.781 48.2C177.878 48.2 175.04 47.7233 172.266 46.77C169.493 45.8167 167.153 44.4083 165.246 42.545L168.821 35.98C170.901 37.4967 172.916 38.645 174.866 39.425C176.86 40.205 178.723 40.595 180.456 40.595C181.8 40.595 182.84 40.3783 183.576 39.945C184.313 39.5117 184.681 38.84 184.681 37.93C184.681 37.28 184.465 36.7817 184.031 36.435C183.598 36.045 182.926 35.6983 182.016 35.395C181.15 35.0917 180.066 34.7667 178.766 34.42C176.166 33.5533 174 32.7083 172.266 31.885C170.533 31.0617 169.233 30.065 168.366 28.895C167.5 27.6817 167.066 26.1217 167.066 24.215C167.066 21.9183 167.63 19.925 168.756 18.235C169.926 16.5017 171.573 15.1583 173.696 14.205C175.82 13.2517 178.355 12.775 181.301 12.775C183.641 12.775 185.916 13.1433 188.126 13.88C190.38 14.6167 192.481 15.8517 194.431 17.585L190.401 24.085C188.451 22.7417 186.718 21.7667 185.201 21.16C183.685 20.5533 182.211 20.25 180.781 20.25C180.045 20.25 179.373 20.3367 178.766 20.51C178.16 20.6833 177.661 20.9867 177.271 21.42C176.925 21.81 176.751 22.33 176.751 22.98C176.751 23.63 176.925 24.15 177.271 24.54C177.661 24.93 178.246 25.2767 179.026 25.58C179.85 25.84 180.868 26.165 182.081 26.555C184.898 27.3783 187.238 28.2233 189.101 29.09C190.965 29.9133 192.351 30.9533 193.261 32.21C194.215 33.4233 194.691 35.0483 194.691 37.085C194.691 40.5517 193.435 43.2817 190.921 45.275C188.451 47.225 185.071 48.2 180.781 48.2Z" fill="#222222"/>
<path d="M200.026 13.425V47.55H210.426V13.425H200.026Z" fill="#222222"/>
<path d="M200.026 0.100006V9.52501H210.426V0.100006H200.026Z" fill="#222222"/>
<path fill-rule="evenodd" clip-rule="evenodd" d="M233.861 48.2C230.957 48.2 228.379 47.745 226.126 46.835C223.872 45.8817 221.944 44.6033 220.341 43C218.781 41.3967 217.589 39.555 216.766 37.475C215.942 35.3517 215.531 33.1417 215.531 30.845C215.531 27.5517 216.246 24.5617 217.676 21.875C219.149 19.145 221.251 16.9567 223.981 15.31C226.711 13.62 230.004 12.775 233.861 12.775C237.717 12.775 240.989 13.5983 243.676 15.245C246.406 16.8917 248.486 19.0583 249.916 21.745C251.346 24.3883 252.061 27.27 252.061 30.39C252.061 30.9967 252.017 31.6033 251.931 32.21C251.887 32.7733 251.844 33.2717 251.801 33.705H226.581C226.711 35.2217 227.122 36.5 227.816 37.54C228.552 38.58 229.484 39.3817 230.611 39.945C231.737 40.465 232.929 40.725 234.186 40.725C235.746 40.725 237.197 40.3567 238.541 39.62C239.927 38.8833 240.881 37.8867 241.401 36.63L250.241 39.1C249.374 40.8767 248.139 42.4583 246.536 43.845C244.976 45.1883 243.112 46.25 240.946 47.03C238.822 47.81 236.461 48.2 233.861 48.2ZM226.321 27.335H241.141C240.967 25.905 240.556 24.67 239.906 23.63C239.256 22.5467 238.389 21.7233 237.306 21.16C236.222 20.5533 235.031 20.25 233.731 20.25C232.387 20.25 231.174 20.5533 230.091 21.16C229.051 21.7233 228.206 22.5467 227.556 23.63C226.906 24.67 226.494 25.905 226.321 27.335Z" fill="#222222"/>
<path d="M271.594 23.565C273.631 22.7417 275.906 22.33 278.419 22.33V12.97C278.246 12.9267 278.029 12.905 277.769 12.905H276.729C274.692 12.9483 272.742 13.62 270.879 14.92C269.016 16.22 267.499 18.0183 266.329 20.315V13.425H256.774V47.55H267.174V27.075C268.084 25.515 269.557 24.345 271.594 23.565Z" fill="#222222"/>
<path d="M95.9908 35.2C95.3408 33.8567 95.0158 32.2967 95.0158 30.52C95.0158 28.7434 95.3408 27.1834 95.9908 25.84C96.6841 24.4967 97.5941 23.4567 98.7208 22.72C99.8475 21.9834 101.147 21.615 102.621 21.615C104.051 21.615 105.329 21.9834 106.456 22.72C107.626 23.4567 108.536 24.4967 109.186 25.84C109.836 27.1834 110.161 28.7434 110.161 30.52C110.161 32.2534 109.836 33.7917 109.186 35.135C108.536 36.4784 107.626 37.54 106.456 38.32C105.329 39.0567 104.051 39.425 102.621 39.425C101.147 39.425 99.8475 39.0567 98.7208 38.32C97.5941 37.5834 96.6841 36.5434 95.9908 35.2Z" fill="#222222"/>
<path d="M136.689 30.52C136.689 32.2967 137.014 33.8567 137.664 35.2C138.357 36.5434 139.267 37.5834 140.394 38.32C141.52 39.0567 142.82 39.425 144.294 39.425C145.724 39.425 147.002 39.0567 148.129 38.32C149.299 37.54 150.209 36.4784 150.859 35.135C151.509 33.7917 151.834 32.2534 151.834 30.52C151.834 28.7434 151.509 27.1834 150.859 25.84C150.209 24.4967 149.299 23.4567 148.129 22.72C147.002 21.9834 145.724 21.615 144.294 21.615C142.82 21.615 141.52 21.9834 140.394 22.72C139.267 23.4567 138.357 24.4967 137.664 25.84C137.014 27.1834 136.689 28.7434 136.689 30.52Z" fill="#222222"/>
</svg>
